resources/nuxt-ui-icon.svg

<svg xmlns="http://www.w3.org/2000/svg" width="24" height="24" viewBox="0 0 24 24" fill="none" stroke="currentColor" stroke-width="1" stroke-linecap="round" stroke-linejoin="round"><path d="M12.146 8.583l-1.3 -2.09a1.046 1.046 0 0 0 -1.786 .017l-5.91 9.908a1.046 1.046 0 0 0 .897 1.582h3.913" /><path d="M20.043 18c.743 0 1.201 -.843 .82 -1.505l-4.044 -7.013a.936 .936 0 0 0 -1.638 0l-4.043 7.013c-.382 .662 .076 1.505 .819 1.505h8.086" /></svg>

<?xml version="1.0" encoding="UTF-8" standalone="no"?>
<!DOCTYPE svg PUBLIC "-//W3C//DTD SVG 1.1//EN" "http://www.w3.org/Graphics/SVG/1.1/DTD/svg11.dtd">
<svg width="100%" height="100%" viewBox="0 0 31 31" version="1.1" xmlns="http://www.w3.org/2000/svg" xmlns:xlink="http://www.w3.org/1999/xlink" xml:space="preserve" xmlns:serif="http://www.serif.com/" style="fill-rule:evenodd;clip-rule:evenodd;stroke-linecap:round;stroke-linejoin:round;">
    <g transform="matrix(1,0,0,1,0.100718,0.100718)">
        <g transform="matrix(1.258393,0,0,1.258393,-0.100718,-0.100718)">
            <rect x="0" y="0" width="24" height="24" style="fill:none;fill-rule:nonzero;"/>
        </g>
        <g transform="matrix(1.258393,0,0,1.258393,-0.100718,-0.100718)">
            <path d="M12.146,8.583L10.846,6.493C10.655,6.187 10.319,6 9.958,6C9.59,6 9.249,6.194 9.06,6.51L3.15,16.418C3.053,16.58 3.002,16.765 3.002,16.954C3.002,17.527 3.474,17.999 4.047,18L7.96,18" style="fill:none;fill-rule:nonzero;stroke:black;stroke-width:2.78px;"/>
        </g>
        <g transform="matrix(1.258393,0,0,1.258393,-0.100718,-0.100718)">
            <path d="M20.043,18C20.786,18 21.244,17.157 20.863,16.495L16.819,9.482C16.654,9.184 16.34,8.999 16,8.999C15.66,8.999 15.346,9.184 15.181,9.482L11.138,16.495C10.756,17.157 11.214,18 11.957,18L20.043,18" style="fill:none;fill-rule:nonzero;stroke:black;stroke-width:2.78px;"/>
        </g>
    </g>
</svg>
